icons/obstetricsmonia.svg

<svg width="48" height="48" viewBox="0 0 48 48" fill="none" xmlns="http://www.w3.org/2000/svg">
<path fill-rule="evenodd" clip-rule="evenodd" d="M39 8H9C8.44771 8 8 8.44772 8 9V39C8 39.5523 8.44772 40 9 40H39C39.5523 40 40 39.5523 40 39V9C40 8.44771 39.5523 8 39 8ZM9 6C7.34315 6 6 7.34315 6 9V39C6 40.6568 7.34315 42 9 42H39C40.6568 42 42 40.6569 42 39V9C42 7.34315 40.6569 6 39 6H9Z" fill="black"/>
<path fill-rule="evenodd" clip-rule="evenodd" d="M32.4853 32.2826C27.799 36.9689 20.201 36.9689 15.5147 32.2826C11.2343 28.0022 10.8636 21.2927 14.4024 16.5915L16.2731 15.9902C17.9793 15.4418 19.2705 17.5564 18.0033 18.8236C15.9825 20.8444 17.4137 24.2996 20.2715 24.2996H20.909C21.8023 24.2996 22.584 24.9001 22.8142 25.7633L23.112 26.8803C22.8083 26.7459 22.4668 26.7153 22.1412 26.7967L18.1814 27.7867C17.3777 27.9876 16.8891 28.802 17.09 29.6057C17.2909 30.4094 18.1053 30.898 18.909 30.6971L21.4136 30.071L22.0397 32.5756C22.2218 33.3039 22.9144 33.7855 23.6606 33.7026C28.8422 33.1268 31.2018 29.4616 31.8291 27.7887C32.009 27.3089 31.9316 26.7705 31.6238 26.3609C31.316 25.9513 30.8204 25.7271 30.3096 25.7664L28.3552 25.9168L27.6725 23.1859C27.4716 22.3822 26.6572 21.8936 25.8535 22.0945C25.0498 22.2954 24.5612 23.1098 24.7621 23.9135L25.7521 27.8733C25.9295 28.583 26.5929 29.0612 27.3223 29.0051L27.3619 29.002C26.8742 29.4299 26.271 29.8355 25.5365 30.1506L24.2635 25.3768C23.8582 23.857 22.4818 22.7996 20.909 22.7996H20.2715C18.7501 22.7996 17.9881 20.9601 19.064 19.8843C21.2657 17.6825 19.3557 14.1191 16.5205 14.412C21.2319 10.6479 28.1211 10.9479 32.4853 15.312C37.1716 19.9983 37.1716 27.5963 32.4853 32.2826ZM33.8995 33.6968C28.4322 39.1641 19.5678 39.1641 14.1005 33.6968C8.63316 28.2294 8.63316 19.3651 14.1005 13.8978C19.5678 8.43045 28.4322 8.43045 33.8995 13.8978C39.3668 19.3651 39.3668 28.2294 33.8995 33.6968ZM29.4348 24.2922C30.5282 25.3857 32.3011 25.3857 33.3946 24.2922C34.488 23.1988 34.488 21.4259 33.3946 20.3324C32.3011 19.239 30.5282 19.239 29.4348 20.3324C28.3413 21.4259 28.3413 23.1988 29.4348 24.2922Z" fill="black"/>
</svg>

<svg
  xmlns="http://www.w3.org/2000/svg"
  width="24"
  height="24"
  viewBox="0 0 24 24"
  fill="none"
  stroke="currentColor"
  stroke-width="2"
  stroke-linecap="round"
  stroke-linejoin="round"
>
  <path
    fill-rule="evenodd"
    d="M39 8H9a1 1 0 0 0-1 1v30a1 1 0 0 0 1 1h30a1 1 0 0 0 1-1V9a1 1 0 0 0-1-1M9 6a3 3 0 0 0-3 3v30a3 3 0 0 0 3 3h30a3 3 0 0 0 3-3V9a3 3 0 0 0-3-3z"
    clip-rule="evenodd"
  />
  <path
    fill-rule="evenodd"
    d="M32.485 32.283c-4.686 4.686-12.284 4.686-16.97 0-4.28-4.28-4.651-10.99-1.113-15.692l1.871-.6c1.706-.55 2.997 1.565 1.73 2.833-2.02 2.02-.59 5.476 2.268 5.476h.638c.893 0 1.675.6 1.905 1.463l.298 1.117a1.5 1.5 0 0 0-.97-.083l-3.96.99a1.5 1.5 0 1 0 .727 2.91l2.505-.626.626 2.505a1.5 1.5 0 0 0 1.62 1.127c5.182-.576 7.542-4.241 8.17-5.914a1.5 1.5 0 0 0-1.52-2.023l-1.955.15-.683-2.73a1.5 1.5 0 1 0-2.91.727l.99 3.96a1.5 1.5 0 0 0 1.57 1.132l.04-.003a6.9 6.9 0 0 1-1.825 1.149l-1.273-4.774a3.47 3.47 0 0 0-3.355-2.577h-.637c-1.522 0-2.284-1.84-1.208-2.916 2.202-2.201.292-5.765-2.544-5.472 4.712-3.764 11.601-3.464 15.965.9 4.687 4.686 4.687 12.284 0 16.97m1.415 1.414c-5.468 5.467-14.332 5.467-19.8 0-5.467-5.468-5.467-14.332 0-19.8 5.468-5.467 14.332-5.467 19.8 0 5.467 5.468 5.467 14.332 0 19.8m-4.465-9.405a2.8 2.8 0 1 0 3.96-3.96 2.8 2.8 0 0 0-3.96 3.96"
    clip-rule="evenodd"
  />
</svg>
